X:1
T:Title
L:1/8
Q:1/4=110
M:6/8
K:Ab
V:1 treble nm="Church Organ, Staff"
V:1
 A G2 F E2 | A G2 F E2 | E F2 G A2 | B c2- c c2 | c c2 G A2 | A B2 F G2 | GBA GFG | F E2- E E2 | %8
w: By~Arthur~F.~Warner * * *||||||||
 d c2 B =A2 | c B2 A G2 | E F2 G A2 | B c2- c c2 | c e2 d c2 | B d2 c B2 | A G2 A c2 | %15
w: |||||||
 B A2- A A2 |] %16
w: |

